build/system/LightModeOutline.svg

<svg xmlns="http://www.w3.org/2000/svg" fill="none" viewBox="0 0 24 24" focusable="false"><path d="M0 0H24V24H0z"/><path fill="#74767B" fill-rule="evenodd" d="M12.0002 2.00049C12.3591 2.0005 12.6502 2.29151 12.6502 2.6505L12.6501 5.09777C12.6501 5.45675 12.3591 5.74776 12.0001 5.74775C11.6411 5.74775 11.3501 5.45673 11.3501 5.09774L11.3502 2.65047C11.3502 2.29149 11.6412 2.00048 12.0002 2.00049ZM4.92939 4.929C5.18324 4.67517 5.5948 4.67518 5.84863 4.92902L7.57907 6.65954C7.70599 6.78646 7.76944 6.95281 7.76944 7.11915C7.76944 7.2855 7.70598 7.45186 7.57905 7.57878C7.32521 7.83261 6.91365 7.83261 6.65981 7.57876L4.92937 5.84824C4.80246 5.72132 4.739 5.55498 4.739 5.38863C4.739 5.22228 4.80247 5.05593 4.92939 4.929ZM19.2614 5.389C19.2614 5.55536 19.1979 5.72171 19.071 5.84863L17.3405 7.57907C17.0866 7.83291 16.6751 7.8329 16.4212 7.57905C16.2943 7.45213 16.2309 7.28579 16.2309 7.11944C16.2309 6.95309 16.2943 6.78674 16.4212 6.65981L18.1518 4.92937C18.4056 4.67554 18.8172 4.67555 19.071 4.92939C19.1979 5.05631 19.2614 5.22266 19.2614 5.389ZM17.0001 12C17.0001 14.7614 14.7615 17 12.0001 17C9.2387 17 7.00012 14.7614 7.00012 12C7.00012 9.23858 9.2387 7 12.0001 7C14.7615 7 17.0001 9.23858 17.0001 12ZM12.0001 15.7C14.0436 15.7 15.7001 14.0435 15.7001 12C15.7001 9.95655 14.0436 8.3 12.0001 8.3C9.95667 8.3 8.30012 9.95655 8.30012 12C8.30012 14.0435 9.95667 15.7 12.0001 15.7ZM21.9998 11.9997C21.9997 12.3587 21.7087 12.6497 21.3497 12.6497L18.9025 12.6496C18.5435 12.6496 18.2525 12.3586 18.2525 11.9996C18.2525 11.6406 18.5435 11.3496 18.9025 11.3496L21.3498 11.3497C21.7088 11.3497 21.9998 11.6407 21.9998 11.9997ZM2.00049 11.9998C2.0005 11.6409 2.29152 11.3498 2.6505 11.3498L5.09777 11.3499C5.45675 11.3499 5.74775 11.6409 5.74775 11.9999C5.74775 12.3589 5.45673 12.6499 5.09774 12.6499L2.65047 12.6498C2.29149 12.6498 2.00049 12.3588 2.00049 11.9998ZM4.92925 19.0706C4.80233 18.9437 4.73888 18.7773 4.73888 18.611C4.73888 18.4446 4.80234 18.2783 4.92927 18.1514L6.65978 16.4209C6.91363 16.1671 7.32519 16.1671 7.57902 16.4209C7.70594 16.5479 7.76939 16.7142 7.76939 16.8806C7.76939 17.0469 7.70593 17.2133 7.579 17.3402L5.84849 19.0706C5.59464 19.3245 5.18308 19.3245 4.92925 19.0706ZM19.071 19.071C18.8171 19.3248 18.4056 19.3248 18.1517 19.071L16.4213 17.3405C16.2944 17.2135 16.2309 17.0472 16.2309 16.8808C16.2309 16.7145 16.2944 16.5481 16.4213 16.4212C16.6752 16.1674 17.0867 16.1674 17.3406 16.4212L19.071 18.1518C19.1979 18.2787 19.2614 18.445 19.2614 18.6114C19.2614 18.7777 19.1979 18.9441 19.071 19.071ZM12.0001 21.9995C11.6411 21.9995 11.3501 21.7085 11.3501 21.3495L11.3501 18.9022C11.3502 18.5432 11.6412 18.2522 12.0002 18.2522C12.3591 18.2523 12.6501 18.5433 12.6501 18.9023L12.6501 21.3495C12.6501 21.7085 12.3591 21.9995 12.0001 21.9995Z"/></svg>

<svg xmlns="http://www.w3.org/2000/svg" fill="none" viewBox="0 0 24 24" focusable="false"><path fill="#74767B" fill-rule="evenodd" d="M12 2c.35 0 .65.29.65.65l-.01 2.44c0 .36-.29.65-.64.65-.36 0-.65-.29-.65-.65V2.65c0-.36.29-.65.65-.65M4.92 4.92c.26-.25.67-.25.92 0l1.73 1.73c.13.13.19.3.19.46 0 .17-.06.34-.19.46a.64.64 0 0 1-.92 0L4.92 5.84a.66.66 0 0 1-.19-.46c0-.16.07-.33.19-.46m14.34.46c0 .17-.07.34-.19.46l-1.73 1.73a.64.64 0 0 1-.92 0 .62.62 0 0 1-.19-.46c0-.16.06-.33.19-.46l1.73-1.73c.25-.25.66-.25.92 0 .12.13.19.3.19.46M17 12c0 2.76-2.24 5-5 5-2.77 0-5-2.24-5-5 0-2.77 2.23-5 5-5 2.76 0 5 2.23 5 5m-5 3.7a3.704 3.704 0 0 0 0-7.41A3.7 3.7 0 0 0 8.3 12c0 2.04 1.65 3.7 3.7 3.7m10-3.71c-.01.36-.3.65-.66.65H18.9c-.36 0-.65-.29-.65-.65 0-.35.29-.65.65-.65h2.44c.36 0 .66.3.66.65m-20 0c0-.35.29-.65.65-.65h2.44c.36 0 .65.3.65.65 0 .36-.29.65-.65.65H2.65c-.36 0-.65-.29-.65-.65m2.92 7.08a.7.7 0 0 1-.19-.46c0-.17.07-.34.19-.46l1.73-1.73a.64.64 0 0 1 .92 0c.13.12.19.29.19.46 0 .16-.06.33-.19.46l-1.73 1.73c-.25.25-.66.25-.92 0m14.15 0c-.26.25-.67.25-.92 0l-1.73-1.73a.65.65 0 0 1-.19-.46c0-.17.06-.34.19-.46a.64.64 0 0 1 .92 0l1.73 1.73c.12.12.19.29.19.46 0 .16-.07.33-.19.46M12 21.99c-.36 0-.65-.29-.65-.65V18.9c0-.36.29-.65.65-.65.35 0 .65.29.65.65l-.01 2.44c0 .36-.29.65-.64.65"/></svg>
